X: 1
T: Thig an Fidhlear a' Nochd
T: The Fiddler's coming tonight
R: reel
S: page in Concord Slow Scottish Session collection
N: "Boston Scottish Fiddle Club" at bottom right, "Scottish Gaelic" at upper right
Z: 2015 John Chambers <jc:trillian.mit.edu>
M: C
L: 1/8
K: Am
"A"|: "Am"AAe2 AAAA | BBA2 "G"GGGG | "Am"AAe2 AAAA | "G"AGEG "Am"A2A2 :|
"B"|: "Am"A2A2 GEE2 | "G"G2G2 GAAG | "Am"A2c2 BAAG | "G"A2BG "Am"A2A2 :|
